src/lib/packages/icons/src/assets/line/battery-full.svg

<svg width="24" height="24" viewBox="0 0 24 24" fill="none" xmlns="http://www.w3.org/2000/svg">
<path d="M21.75 11V14C21.75 14.414 21.414 14.75 21 14.75C20.586 14.75 20.25 14.414 20.25 14V11C20.25 10.586 20.586 10.25 21 10.25C21.414 10.25 21.75 10.586 21.75 11ZM6 9.75C5.586 9.75 5.25 10.086 5.25 10.5V14.5C5.25 14.914 5.586 15.25 6 15.25C6.414 15.25 6.75 14.914 6.75 14.5V10.5C6.75 10.086 6.414 9.75 6 9.75ZM8.5 9.75C8.086 9.75 7.75 10.086 7.75 10.5V14.5C7.75 14.914 8.086 15.25 8.5 15.25C8.914 15.25 9.25 14.914 9.25 14.5V10.5C9.25 10.086 8.914 9.75 8.5 9.75ZM11 9.75C10.586 9.75 10.25 10.086 10.25 10.5V14.5C10.25 14.914 10.586 15.25 11 15.25C11.414 15.25 11.75 14.914 11.75 14.5V10.5C11.75 10.086 11.414 9.75 11 9.75ZM13.5 9.75C13.086 9.75 12.75 10.086 12.75 10.5V14.5C12.75 14.914 13.086 15.25 13.5 15.25C13.914 15.25 14.25 14.914 14.25 14.5V10.5C14.25 10.086 13.914 9.75 13.5 9.75ZM16 9.75C15.586 9.75 15.25 10.086 15.25 10.5V14.5C15.25 14.914 15.586 15.25 16 15.25C16.414 15.25 16.75 14.914 16.75 14.5V10.5C16.75 10.086 16.414 9.75 16 9.75ZM19.75 9.5V15.5C19.75 16.909 18.909 17.75 17.5 17.75H4.5C3.091 17.75 2.25 16.909 2.25 15.5V9.5C2.25 8.091 3.091 7.25 4.5 7.25H17.5C18.909 7.25 19.75 8.091 19.75 9.5ZM18.25 9.5C18.25 8.911 18.089 8.75 17.5 8.75H4.5C3.911 8.75 3.75 8.911 3.75 9.5V15.5C3.75 16.089 3.911 16.25 4.5 16.25H17.5C18.089 16.25 18.25 16.089 18.25 15.5V9.5Z" fill="currentColor"/>
</svg>

<svg xmlns="http://www.w3.org/2000/svg" width="24" height="24" fill="none"><path fill="currentColor" d="M21.75 11v3a.75.75 0 0 1-1.5 0v-3a.75.75 0 0 1 1.5 0ZM6 9.75a.75.75 0 0 0-.75.75v4a.75.75 0 0 0 1.5 0v-4A.75.75 0 0 0 6 9.75Zm2.5 0a.75.75 0 0 0-.75.75v4a.75.75 0 0 0 1.5 0v-4a.75.75 0 0 0-.75-.75Zm2.5 0a.75.75 0 0 0-.75.75v4a.75.75 0 0 0 1.5 0v-4a.75.75 0 0 0-.75-.75Zm2.5 0a.75.75 0 0 0-.75.75v4a.75.75 0 0 0 1.5 0v-4a.75.75 0 0 0-.75-.75Zm2.5 0a.75.75 0 0 0-.75.75v4a.75.75 0 0 0 1.5 0v-4a.75.75 0 0 0-.75-.75Zm3.75-.25v6c0 1.409-.841 2.25-2.25 2.25h-13c-1.409 0-2.25-.841-2.25-2.25v-6c0-1.409.841-2.25 2.25-2.25h13c1.409 0 2.25.841 2.25 2.25Zm-1.5 0c0-.589-.161-.75-.75-.75h-13c-.589 0-.75.161-.75.75v6c0 .589.161.75.75.75h13c.589 0 .75-.161.75-.75v-6Z"/></svg>
